X: 29342
T: Newfoundland Spring
R: jig
M: 6/8
K: Edorian
|:A|"Em"BEB BEB|"D"ABc dcd|AFD DED|AFD DFA|
"Em"BEB BEB|"D"ABc dcd|AFD DED|"Em"FEE E2:|
|:A|"Em"Bee efe|"D"ABc dcd|AFD DED|AFD DFA|
"Em"Bee efe|"D"ABc dcd|AFD DED|"Em"FEE E2:|

